!!!OTL: Madam! Madam! (196), S. 425
!!!id: T0376
**kern
*clefG2
*k[]
*C:
{8g
=1
8cc
4r
8g
=2
8e
4r
8cc
=3
8cc
8b
8a
8g
=4
4cc
8g}
8r
=5
{4.dd
8cc
=6
8b
8b
8a
8a
=7
4g}
4r
=8
{8g
8g
8cc
8r
=9
8a
8a
8dd
8r
=10
8g
8g
8ee
8dd
=11
8cc
8e
8e}
=12
{8g
=13
8g
16f
16f
8f
8a
=14
8a
16g
16g
8g}
=15
{8dd
=16
8dd
16b
16b
8a
8b
=17
4cc}
8r
==
*-
!!!minrhy: 16
!!!meters: 2/4 ]  ZZ[5
!!!cut: Madam! Madam! (196), S. 425
!!!reg: Luxemburg
!!!trd: Singendes Volk, Esch-Alzette, 1937 posth.
!!!rhy1: X_  X_0_X_  X_0_X_  X_X_X_X_  X__X_0   (x2)
!!!rhy2: X__.X_  X_X_X_X_  X__0_
!!!key: T0376  16  C 2/4 ]  ZZ[5
!!!mod: HEPTATONIK IONISCH]  AMBITUS[8
!!!kad: 5535+1
!!!akz: +13+1+1_+275_565+1_56_+2+1_
!!!fot: 'a__b__c__d__e__
!!!for: 'a__b__c__d__dw_
!!!fok: '^__\__^d_-__Vd_
!! PHRAS[GEMISCHTTAKTIG]
!!!fkt: Hochzeits-, Ehestandslied
!!!bem: Altrier, fff Ketty Weiler, 1910
!! THILL; Mathias
!! PR[50] 2K[0] 2G[0] 3K[0] 3G[3] 4A[3] 4Ü[0] 5A[2] 6K[0] 6G[3]
!! 7K[0] 7G[0] 8A[0] MEHR[0] SI[11] ABS[62] SR[0] SP[11]
!! ST[16] 2k[6] 2g[29] 3k[0] 3g[0] 4d[3] 4ü[0] 5d[0] 6k[0] 6g[0]
!! 7k[0] 7g[0] 8d[0] mehr[0] si[39] dm[-28] sr[35] sp[3]
!! 1F[21] 2F[73] 3F[6] 4F[0] LF[0] 2P[0] 3P[0] 4P[0] TRI[0] DF[3] AB[67]
!! TF[0] U3K[0] U3[0] U4[0] U4Ü[0] U5[0] U6K[0] U6[0] U7K[0] U7[0]
!! N1[17] N2K[0] N2[10] N3K[0] N3[6] N4[6] N4Ü[0] N5[25] N6K[0] N6[16]
!!!n7k: 0] N7[16] O1[3] O2K[0] O2[0] O3K[0] O3[0] HÖ[0
